X:1
T:Title
%%score { ( 1 3 5 ) | ( 2 4 ) }
L:1/8
Q:1/4=100
M:4/4
K:D
V:1 treble nm="Grand Piano"
V:3 treble 
V:5 treble 
V:2 bass 
V:4 bass 
V:1
 A3 ^G BA[CF][CE] | z2 z E F4 | B3 ^A cBGF | F4 E4 | A3 ^G BAF[Ad] | d3 c B4 | %6
w: G.~W.~Elderkin * * * * *||||||
 A3 A AA[CEG][K:bass].[A,CE] | [F,D]6 z2 | G3 E CEGB | .D2 z2 [DF]4 | G3 E CEcB | z4 d4 | %12
w: ||||||
 d3 d cded | d4 E4 | %14
w: ||
 F3 A [CA][CA][CG][CE][Q:1/4=99][Q:1/4=97][Q:1/4=96][Q:1/4=94][Q:1/4=93][Q:1/4=91][Q:1/4=90][Q:1/4=88][Q:1/4=87][Q:1/4=85][Q:1/4=84][Q:1/4=82][Q:1/4=81][Q:1/4=79][Q:1/4=78][Q:1/4=76] | %15
w: |
 D6 z2 |] %16
w: |
V:2
 [D,F,D]3 [D,=F,D] [D,G,D][D,^F,D][A,,A,][A,,G,] | D,3- [D,G,] [D,A,D]4 | %2
 [G,D]3 [G,C] [G,E][G,D][E,B,E][E,B,D] | [A,,A,]8 | [F,A,D]3 [=F,B,D] [^F,D][F,D][D,A,D][F,=C] | %5
 [G,G]3- [G,CG] [G,DG]4 | [A,DF]3 [A,DF] [A,CG][A,CG][K:bass] .A,,>G, | D,6 z2 | E3 C A,CE=F | %9
 D,D,D,D, D,2 D,2 | E3 C A,CE=F | D,D,D,D, [F,A,]2 A,2 | [G,G]4 [G,G]4[K:bass] | .[^G,E]2 z2 z4 | %14
 [F,A,D]3 [D,F,D] [A,,E,][A,,A,][A,,E,][A,,G,] | [D,F,]6 z2 |] %16
V:3
 x8 | D4 z4 | x8 | C8 | x8 | x8 | x7[K:bass] x | x8 | x8 | [FA]-[DF-A-][DF-A-][DFA] A,2 A,2 | x8 | %11
 [F-A]4 F4 | x8 | z EEE z2 C2 | x8 | x8 |] %16
V:4
 x8 | F,4 z4 | x8 | x8 | x8 | B,4 z4 | z4 z2[K:bass] z A,, | x8 | x8 | x8 | x8 | x8 | %12
 B,3 B, ^A,B,=C[K:bass]B, | B,-[^G,B,-][G,B,-][G,B,] [=G,C]2 [G,A,]2 | x8 | x8 |] %16
V:5
 x8 | x8 | x8 | x8 | x8 | x8 | x7[K:bass] x | x8 | x8 | x8 | x8 | A,A,A,A, z2 =C2 | x8 | x8 | x8 | %15
 x8 |] %16

